packages/admin/admin-icons/icons/contact.svg

<svg xmlns="http://www.w3.org/2000/svg" width="16" height="16" viewBox="0 0 16 16"><path fill="#242424" fill-rule="evenodd" d="M15.5,0 C15.7761424,-2.01283612e-15 16,0.223857625 16,0.5 L16,8.81726318 C16,9.09340556 15.7761424,9.31726318 15.5,9.31726318 L4.32865667,9.31737474 C4.38900277,9.39778318 4.45313017,9.47936001 4.5222975,9.56353902 L4.5222975,9.56353902 L4.73357868,9.8110781 C4.92274579,10.0252359 5.14689287,10.2616234 5.42275467,10.5393042 L5.42275467,10.5393042 L5.58353651,10.6998389 C6.20818807,11.3180797 6.61840641,11.6560138 7.0761437,11.9465682 L7.0761437,11.9465682 L7.31018499,12.0889755 C7.39032722,12.1358474 7.47300216,12.1824815 7.55942256,12.2299563 L7.55942256,12.2299563 L7.69811728,12.3066763 C7.74923433,12.3354533 7.81355761,12.322106 7.85187829,12.2718397 L7.85187829,12.2718397 L8.58029006,11.3289888 C8.87532654,10.9505997 9.40927644,10.8633252 9.81056751,11.1299964 L9.81056751,11.1299964 L12.3062453,12.8049761 C12.7130418,13.0779882 12.8353543,13.6244561 12.5839322,14.0471382 L12.5839322,14.0471382 L11.9622598,15.0905348 C11.7455864,15.4646221 11.3935655,15.7398005 10.9740102,15.8601699 C9.02999112,16.3984413 6.56543537,15.4113682 3.57425255,12.3995358 C0.583706813,9.38834492 -0.396143279,6.90751883 0.139269526,4.94448998 C0.257054272,4.52810962 0.530182841,4.1737259 0.894650445,3.95956793 L0.894650445,3.95956793 L1.93911958,3.32850887 C2.35831097,3.07637286 2.90030221,3.19933466 3.17152065,3.60821312 L3.17152065,3.60821312 L4.83758455,6.12346118 C5.10142116,6.52515247 5.01462832,7.06356747 4.63627513,7.36192582 L4.63627513,7.36192582 L4.101,7.78 L4.1019054,8.65174438 L15.3389947,8.65174438 L15.3389947,0.665518799 L4.1019054,0.665518799 L4.10153236,5.012 L3.44053236,4.014 L3.44090014,0.5 C3.44090014,0.223857625 3.66475777,5.07265313e-17 3.94090014,0 L15.5,0 Z M2.62183201,3.97783066 C2.54619855,3.86380858 2.39502458,3.82952396 2.2781196,3.89984018 L2.2781196,3.89984018 L1.23477445,4.53022167 C1.01078662,4.6618696 0.846041387,4.87562592 0.774993651,5.12678648 L0.774993651,5.12678648 L0.756275596,5.19896478 L0.723279942,5.34940726 L0.696849041,5.50801687 C0.685403608,5.58937397 0.676709823,5.67381743 0.671202486,5.76138276 L0.671202486,5.76138276 L0.664565238,5.94068643 C0.663854907,6.00184883 0.664689604,6.06440926 0.667198159,6.12837823 L0.667198159,6.12837823 L0.679874226,6.32452131 C0.796583666,7.62705475 1.59876482,9.46918951 4.0416713,11.9289605 C6.23402326,14.1364473 7.93251273,15.0138527 9.19326691,15.2555453 L9.19326691,15.2555453 L9.40511865,15.2908805 L9.40511865,15.2908805 L9.50784814,15.3041205 L9.70695364,15.3222311 C9.93432012,15.3370774 10.1444979,15.3304629 10.337936,15.3079428 L10.337936,15.3079428 L10.4996511,15.284874 L10.65323,15.2547921 L10.7987356,15.2184744 C11.0482237,15.1468791 11.2605613,14.9809154 11.3912545,14.7552733 L11.3912545,14.7552733 L12.0170818,13.7048039 C12.0870761,13.5871318 12.052993,13.434832 11.9396203,13.3587445 L11.9396203,13.3587445 L9.44393298,11.6837584 C9.33229539,11.6095739 9.18282558,11.6340005 9.10022058,11.7399428 L9.10022058,11.7399428 L8.37363121,12.6804456 C8.13817907,12.9894439 7.71316302,13.0776356 7.3755236,12.8875572 L7.3755236,12.8875572 L7.05298428,12.7088185 L6.84807191,12.588781 L6.69943342,12.4954152 L6.53924069,12.3880961 L6.36583936,12.2640116 L6.1775751,12.1203494 L5.97279356,11.9542976 L5.7498404,11.7630441 C5.67231026,11.6947801 5.59147579,11.6218472 5.50706128,11.5437767 L5.50706128,11.5437767 L5.24280185,11.2936833 C5.15095151,11.2048687 5.05524539,11.1104478 4.95540778,11.0099519 L4.95540778,11.0099519 L4.67354857,10.720662 L4.42511746,10.4546431 L4.20731895,10.2102316 C4.17341661,10.1712045 4.14067415,10.1330084 4.10903333,10.0956086 L4.10903333,10.0956086 L3.93194216,9.88048831 C3.90447494,9.84613512 3.87799288,9.81250893 3.85243774,9.77957507 L3.85243774,9.77957507 L3.70976403,9.59000251 L3.70976403,9.59000251 L3.64589587,9.50092725 L3.53134974,9.33315889 L3.38726447,9.10434212 L3.30562014,8.96459509 L3.09031948,8.57309239 C2.90156117,8.23324105 2.98918568,7.80541645 3.29602638,7.56841897 L3.29602638,7.56841897 L4.23042961,6.83661866 C4.33577732,6.75354319 4.36003828,6.60292797 4.28623291,6.49055928 L4.28623291,6.49055928 Z M12.4997848,5.32256543 L12.5013698,5.32415039 L14.6779895,7.51563273 C14.8073152,7.64584156 14.8073152,7.85601675 14.6779895,7.98622558 C14.5497955,8.11529489 14.3412425,8.1160045 14.2121731,7.98781054 C14.211643,7.98728402 14.2111147,7.9867557 14.2105882,7.98622558 L12.0339685,5.79474325 C11.9046427,5.66453441 11.9046427,5.45435922 12.0339685,5.32415039 C12.1621624,5.19508108 12.3707155,5.19437148 12.4997848,5.32256543 Z M7.40534672,5.32256543 C7.40587684,5.32309195 7.40640516,5.32362027 7.40693168,5.32415039 C7.53625744,5.45435922 7.53625744,5.66453441 7.40693168,5.79474325 L5.23031195,7.98622558 C5.102118,8.11529489 4.89356492,8.1160045 4.76449561,7.98781054 C4.7639655,7.98728402 4.76343717,7.9867557 4.76291066,7.98622558 C4.63358489,7.85601675 4.63358489,7.64584156 4.76291066,7.51563273 L6.93953038,5.32415039 C7.06772434,5.19508108 7.27627742,5.19437148 7.40534672,5.32256543 Z M14.6224342,1.27592746 L14.6766342,1.32934334 C14.6770878,1.3299066 14.6775396,1.33047136 14.6779895,1.3310376 C14.7922371,1.47482227 14.7690109,1.68386324 14.6259878,1.79906293 L9.72045007,5.75029034 L4.8149123,1.79906293 C4.67188929,1.68386324 4.64866304,1.47482227 4.76291066,1.3310376 C4.87618931,1.18847241 5.08359172,1.16473098 5.22615691,1.27800963 C5.22672315,1.27845955 5.2272879,1.27891133 5.22785117,1.27936496 L9.72045007,4.89755284 L14.213049,1.27936496 C14.3346061,1.18146693 14.5044602,1.18392107 14.6224342,1.27592746 Z"/></svg>

<svg width="16" height="16" fill="none" viewBox="0 0 16 16">
  <path fill="#242424" fill-rule="evenodd" d="M14.68 1.333a.332.332 0 0 0-.468-.052L9.72 4.898 5.23 1.28a.332.332 0 0 0-.416.517L9.72 5.75l4.907-3.952a.332.332 0 0 0 .052-.465Zm-2.647 3.993c.13-.13.34-.13.47 0l2.177 2.191a.332.332 0 1 1-.47.468l-2.177-2.192a.332.332 0 0 1 0-.467Zm-4.624 0a.332.332 0 0 0-.47 0L4.761 7.517a.332.332 0 1 0 .47.468L7.41 5.793a.332.332 0 0 0 0-.467Z M15.5 0a.5.5 0 0 1 .5.5v8.317a.5.5 0 0 1-.5.5H4.33c.06.08.124.162.194.247l.21.247c.19.214.414.45.69.728l.16.16c.626.62 1.036.957 1.494 1.248l.234.142c.08.047.162.093.249.141l.138.077a.119.119 0 0 0 .154-.035l.729-.943a.914.914 0 0 1 1.23-.199l2.496 1.675c.406.273.529.82.277 1.242l-.621 1.043a1.67 1.67 0 0 1-.989.77c-1.944.538-4.408-.449-7.4-3.46C.585 9.387-.395 6.907.14 4.943c.117-.416.39-.77.755-.984l1.044-.631a.913.913 0 0 1 1.233.28l.27.406V.5a.5.5 0 0 1 .5-.5H15.5ZM4.102 8.652V7.78l.535-.418a.929.929 0 0 0 .201-1.239l-.736-1.11V.666H15.34v7.986H4.102Zm.185-2.161L2.622 3.978a.255.255 0 0 0-.344-.078l-1.043.63a1.01 1.01 0 0 0-.478.669l-.033.15-.027.159c-.011.081-.02.166-.025.253l-.007.18c0 .06 0 .123.003.187l.012.197c.117 1.302.92 3.144 3.362 5.604 2.192 2.207 3.89 3.085 5.152 3.326l.211.036c.035.005.07.01.103.013l.2.018c.227.015.437.009.63-.014l.162-.023.154-.03.145-.037c.25-.071.462-.237.593-.463l.625-1.05a.258.258 0 0 0-.077-.346l-2.496-1.675a.256.256 0 0 0-.343.056l-.727.94a.776.776 0 0 1-.998.208l-.323-.18-.205-.12-.148-.093-.16-.107-.174-.124-.188-.144-.205-.166-.223-.191a13.382 13.382 0 0 1-.243-.22l-.264-.25a20.56 20.56 0 0 1-.287-.283l-.282-.29-.249-.265-.217-.245a11.27 11.27 0 0 1-.099-.114l-.177-.216a8.764 8.764 0 0 1-.08-.1l-.142-.19a7.116 7.116 0 0 1-.064-.09l-.114-.167-.144-.229-.082-.14-.215-.39a.787.787 0 0 1 .205-1.006l.935-.731a.26.26 0 0 0 .056-.346Z" clip-rule="evenodd"/>
</svg>
